images/Tiktok.svg

<svg width="33" height="33" viewBox="0 0 33 33" fill="none" xmlns="http://www.w3.org/2000/svg">
<g clip-path="url(#clip0_1_312)">
<path d="M17.04 1H23C23 1 22.66 7.79111 31.26 8.28889V13.5333C31.26 13.5333 26.66 13.7822 23 11.2933L23.06 22.1378C23.06 24.0794 22.412 25.9774 21.198 27.5916C19.984 29.2058 18.2586 30.4636 16.2402 31.2058C14.2217 31.948 12.0009 32.1413 9.85882 31.7612C7.71673 31.3811 5.74962 30.4447 4.20645 29.0705C2.66328 27.6963 1.6134 25.9461 1.18968 24.0413C0.765963 22.1366 0.987448 20.1629 1.82611 18.37C2.66477 16.5772 4.0829 15.0458 5.90105 13.9696C7.7192 12.8935 9.85563 12.3209 12.04 12.3244H13.58V17.7111C12.5752 17.4343 11.4977 17.4463 10.501 17.7454C9.50434 18.0444 8.63912 18.6152 8.02853 19.3767C7.41793 20.1381 7.09307 21.0513 7.10016 21.9864C7.10725 22.9214 7.44593 23.8306 8.06802 24.5847C8.6901 25.3387 9.56389 25.8992 10.565 26.1862C11.5662 26.4733 12.6437 26.4724 13.6442 26.1836C14.6448 25.8948 15.5173 25.3329 16.1378 24.5778C16.7582 23.8227 17.0949 22.9128 17.1 21.9778L17.04 1Z" fill="black"/>
</g>
<defs>
<clipPath id="clip0_1_312">
<rect width="32" height="32" fill="white" transform="translate(1 1)"/>
</clipPath>
</defs>
</svg>

<svg xmlns="http://www.w3.org/2000/svg" width="33" height="33" fill="none"><g clip-path="url(#a)"><path fill="#000" d="M17.04 1H23s-.34 6.791 8.26 7.289v5.244s-4.6.25-8.26-2.24l.06 10.845c0 1.941-.648 3.84-1.862 5.454-1.214 1.614-2.94 2.872-4.958 3.614-2.018.742-4.24.935-6.381.555-2.142-.38-4.11-1.316-5.653-2.69-1.543-1.375-2.593-3.125-3.016-5.03a8.806 8.806 0 0 1 .636-5.671c.839-1.793 2.257-3.324 4.075-4.4 1.818-1.077 3.955-1.65 6.139-1.646h1.54v5.387a5.595 5.595 0 0 0-3.079.034c-.997.3-1.862.87-2.472 1.632a4.114 4.114 0 0 0-.929 2.61c.007.934.346 1.844.968 2.598.622.754 1.496 1.314 2.497 1.601a5.596 5.596 0 0 0 3.08-.002c1-.29 1.872-.851 2.493-1.606.62-.755.957-1.665.962-2.6L17.04 1Z"/></g><defs><clipPath id="a"><path fill="#fff" d="M1 1h32v32H1z"/></clipPath></defs></svg>
